icons/cpu-16.svg

<svg width="16" height="16" viewBox="0 0 16 16" xmlns="http://www.w3.org/2000/svg">
  <path fill-rule="evenodd" clip-rule="evenodd" d="M6.5 0.75C6.5 0.335786 6.16421 0 5.75 0C5.33579 0 5 0.335786 5 0.75V2H3.75C2.7835 2 2 2.7835 2 3.75V5H0.75C0.335786 5 0 5.33579 0 5.75C0 6.16421 0.335786 6.5 0.75 6.5H2V9.5H0.75C0.335786 9.5 0 9.83579 0 10.25C0 10.6642 0.335786 11 0.75 11H2V12.25C2 13.2165 2.7835 14 3.75 14H5V15.25C5 15.6642 5.33579 16 5.75 16C6.16421 16 6.5 15.6642 6.5 15.25V14H9.5V15.25C9.5 15.6642 9.83579 16 10.25 16C10.6642 16 11 15.6642 11 15.25V14H12.25C13.2165 14 14 13.2165 14 12.25V11H15.25C15.6642 11 16 10.6642 16 10.25C16 9.83579 15.6642 9.5 15.25 9.5H14V6.5H15.25C15.6642 6.5 16 6.16421 16 5.75C16 5.33579 15.6642 5 15.25 5H14V3.75C14 2.7835 13.2165 2 12.25 2H11V0.75C11 0.335786 10.6642 0 10.25 0C9.83579 0 9.5 0.335786 9.5 0.75V2H6.5V0.75ZM12.25 12.5H10.25H5.75H3.75C3.61193 12.5 3.5 12.3881 3.5 12.25V10.25V5.75V3.75C3.5 3.61193 3.61193 3.5 3.75 3.5H5.75H10.25H12.25C12.3881 3.5 12.5 3.61193 12.5 3.75V5.75V10.25V12.25C12.5 12.3881 12.3881 12.5 12.25 12.5ZM5.75 5C5.33579 5 5 5.33579 5 5.75V10.25C5 10.6642 5.33579 11 5.75 11H10.25C10.6642 11 11 10.6642 11 10.25V5.75C11 5.33579 10.6642 5 10.25 5H5.75ZM6.5 9.5V6.5H9.5V9.5H6.5Z"/>
</svg>

<svg xmlns="http://www.w3.org/2000/svg" width="16" height="16" viewBox="0 0 16 16"><path fill-rule="evenodd" d="M6.5.75a.75.75 0 00-1.5 0V2H3.75A1.75 1.75 0 002 3.75V5H.75a.75.75 0 000 1.5H2v3H.75a.75.75 0 000 1.5H2v1.25c0 .966.784 1.75 1.75 1.75H5v1.25a.75.75 0 001.5 0V14h3v1.25a.75.75 0 001.5 0V14h1.25A1.75 1.75 0 0014 12.25V11h1.25a.75.75 0 000-1.5H14v-3h1.25a.75.75 0 000-1.5H14V3.75A1.75 1.75 0 0012.25 2H11V.75a.75.75 0 00-1.5 0V2h-3V.75zm5.75 11.75h-8.5a.25.25 0 01-.25-.25v-8.5a.25.25 0 01.25-.25h8.5a.25.25 0 01.25.25v8.5a.25.25 0 01-.25.25zM5.75 5a.75.75 0 00-.75.75v4.5c0 .414.336.75.75.75h4.5a.75.75 0 00.75-.75v-4.5a.75.75 0 00-.75-.75h-4.5zm.75 4.5v-3h3v3h-3z"/></svg>
